X:1
T:Title
%%score { ( 1 3 ) | ( 2 4 ) }
L:1/8
M:6/8
K:G
V:1 treble nm="Grand Piano"
V:3 treble 
V:2 bass 
V:4 bass 
V:1
 z3 z2[Q:1/4=100] [B,D] | [DGB]2 [DGB] F-[FB]A | G3- G2 G | [FA]2 [FA] [Bd]2 [Ac] | B3- B2 d | %5
 d2 B [GB]AG | E3- E2 B | D3 B2 A |[M:5/8] G-G- G3 |[M:1/8] D |[M:3/4] D>E D D3 | G>A G G3 | %12
 [FA]>[GB] [Ac] [Bd]2 [Ac] | [DGB]4- [DGB][GB]/c/ | [Bd]>[ce] [Bd][Bd] c[DGB] | %15
[M:7/8] [CGc]2 [Gd] [Ge]3 [Ge] |[M:3/4] z2 z A z2 |[M:5/8] [B,G]-[B,G]- [B,G]3 |] %18
V:2
 z3 z2 G, | G,2 G, z D[F,CF] | [G,B,D]3- [G,B,D]2 [G,B,D] | [D,D]2 [D,D] [D,D]2 [D,D] | %4
 [G,DG]3- [G,DG]2 [G,B,G] | [G,B,G]2 [G,DG] D[CF][K:bass][E,B,E] | [C,C]3- [C,C]2 [C,G,D] | %7
 [D,G,B,]3 D2 C |[M:5/8] [G,B,]-[G,B,]- [G,B,]3 |[M:1/8] [G,B,] | %10
[M:3/4] [G,B,]>[G,C] [G,B,] [G,B,]3 | [E,B,E]>[E,CE] [E,B,E] [E,B,E]3 | %12
 [D,D]>[D,D] [D,D] [D,D]2 [D,D] | G,4- G, z/[K:treble] A/ | G,>G, .G,2 A[K:bass]=F, | %15
[M:7/8] E,2 [D,B,] [C,C]3 [C,C] |[M:3/4] [D,B,]D, .D,2[K:treble] BD, |[M:5/8] G,-G,- G,3 |] %18
V:3
 x6 | z3 .[CA]3 | x6 | x6 | x6 | x6 | x6 | x6 |[M:5/8] x5 |[M:1/8] x |[M:3/4] x6 | x6 | x6 | x6 | %14
 x6 |[M:7/8] x7 |[M:3/4] [Gd][DGB] [B,G] [CF]2 [CFA] |[M:5/8] x5 |] %18
V:4
 x6 | z3 .D,3 | x6 | x6 | x6 | z3 .D,3[K:bass] | x6 | z3 [D,F,]3 |[M:5/8] x5 |[M:1/8] x | %10
[M:3/4] x6 | x6 | x6 | z2 z2 z G,[K:treble] | z2 z .G,3[K:bass] |[M:7/8] x7 | %16
[M:3/4] z2 z .D,3[K:treble] |[M:5/8] x5 |] %18

